assets/svg/copyright.svg

<?xml version="1.0" encoding="UTF-8" standalone="yes"?>
<svg xmlns="http://www.w3.org/2000/svg" width="375px" height="375px" viewBox="0 0 375 375" version="1.1">
  <g id="surface1">
    <path style=" stroke:none;fill-rule:nonzero;fill:rgb(0%,0%,0%);fill-opacity:1;" d="M 159.265625 170.734375 C 160 165.882812 161.617188 161.617188 163.675781 157.941406 C 165.738281 154.265625 168.675781 151.179688 172.355469 148.824219 C 175.882812 146.621094 180.292969 145.589844 185.734375 145.445312 C 189.117188 145.589844 192.207031 146.179688 195 147.355469 C 197.941406 148.679688 200.585938 150.441406 202.644531 152.648438 C 204.703125 154.855469 206.324219 157.5 207.644531 160.441406 C 208.96875 163.382812 209.558594 166.617188 209.703125 169.855469 L 236.027344 169.855469 C 235.734375 162.941406 234.410156 156.621094 231.910156 150.882812 C 229.410156 145.148438 226.027344 140.148438 221.617188 136.03125 C 217.203125 131.914062 211.910156 128.679688 205.734375 126.328125 C 199.558594 123.972656 192.792969 122.945312 185.292969 122.945312 C 175.734375 122.945312 167.355469 124.5625 160.296875 127.945312 C 153.238281 131.328125 147.355469 135.738281 142.648438 141.472656 C 137.945312 147.207031 134.414062 153.824219 132.207031 161.472656 C 130.003906 169.117188 128.679688 177.058594 128.679688 185.589844 L 128.679688 189.558594 C 128.679688 198.085938 129.855469 206.027344 132.0625 213.675781 C 134.265625 221.320312 137.796875 227.9375 142.503906 233.527344 C 147.207031 239.113281 153.089844 243.671875 160.148438 246.910156 C 167.207031 250.144531 175.589844 251.910156 185.148438 251.910156 C 192.058594 251.910156 198.527344 250.730469 204.558594 248.527344 C 210.585938 246.320312 215.882812 243.230469 220.4375 239.261719 C 224.996094 235.292969 228.675781 230.734375 231.320312 225.4375 C 233.96875 220.144531 235.585938 214.558594 235.734375 208.527344 L 209.410156 208.527344 C 209.265625 211.617188 208.527344 214.410156 207.203125 217.058594 C 205.882812 219.703125 204.117188 221.910156 201.910156 223.820312 C 199.707031 225.734375 197.207031 227.203125 194.265625 228.234375 C 191.46875 229.261719 188.53125 229.554688 185.441406 229.703125 C 180.148438 229.554688 175.734375 228.527344 172.355469 226.320312 C 168.675781 223.96875 165.738281 220.878906 163.675781 217.203125 C 161.617188 213.527344 160 209.117188 159.265625 204.265625 C 158.53125 199.410156 158.089844 194.410156 158.089844 189.558594 L 158.089844 185.589844 C 158.089844 180.441406 158.53125 175.589844 159.265625 170.734375 Z M 187.5 40.449219 C 106.328125 40.449219 40.449219 106.328125 40.449219 187.5 C 40.449219 268.671875 106.328125 334.550781 187.5 334.550781 C 268.671875 334.550781 334.550781 268.671875 334.550781 187.5 C 334.550781 106.328125 268.671875 40.449219 187.5 40.449219 Z M 187.5 305.140625 C 122.652344 305.140625 69.859375 252.347656 69.859375 187.5 C 69.859375 122.652344 122.652344 69.859375 187.5 69.859375 C 252.347656 69.859375 305.140625 122.652344 305.140625 187.5 C 305.140625 252.347656 252.347656 305.140625 187.5 305.140625 Z M 187.5 305.140625 "/>
  </g>
</svg>

<?xml version="1.0" encoding="UTF-8" standalone="no"?>
<svg
   width="375px"
   height="375px"
   viewBox="0 0 375 375"
   version="1.1"
   id="svg5"
   sodipodi:docname="copyright.svg"
   inkscape:version="1.1.2 (0a00cf5339, 2022-02-04)"
   xmlns:inkscape="http://www.inkscape.org/namespaces/inkscape"
   xmlns:sodipodi="http://sodipodi.sourceforge.net/DTD/sodipodi-0.dtd"
   xmlns="http://www.w3.org/2000/svg"
   xmlns:svg="http://www.w3.org/2000/svg">
  <defs
     id="defs9" />
  <sodipodi:namedview
     id="namedview7"
     pagecolor="#505050"
     bordercolor="#eeeeee"
     borderopacity="1"
     inkscape:pageshadow="0"
     inkscape:pageopacity="0"
     inkscape:pagecheckerboard="0"
     showgrid="false"
     inkscape:zoom="2.4012481"
     inkscape:cx="194.06574"
     inkscape:cy="30.192632"
     inkscape:window-width="1920"
     inkscape:window-height="995"
     inkscape:window-x="0"
     inkscape:window-y="0"
     inkscape:window-maximized="1"
     inkscape:current-layer="svg5" />
  <g
     id="surface1"
     transform="matrix(1.2644961,0,0,1.2644961,-49.593016,-49.593016)">
    <path
       style="fill:#000000;fill-opacity:1;fill-rule:nonzero;stroke:none"
       d="m 159.26562,170.73437 c 0.73438,-4.85156 2.35157,-9.11718 4.41016,-12.79296 2.0625,-3.67579 5,-6.76172 8.67969,-9.11719 3.52734,-2.20313 7.9375,-3.23438 13.3789,-3.37891 3.38282,0.14453 6.47266,0.73438 9.26563,1.91016 2.94141,1.32422 5.58594,3.08594 7.64453,5.29297 2.05859,2.20703 3.67969,4.85156 5,7.79297 1.32422,2.9414 1.91406,6.17578 2.05859,9.41406 h 26.32422 c -0.29297,-6.91406 -1.61718,-13.23438 -4.11718,-18.97266 -2.5,-5.73437 -5.88282,-10.73437 -10.29297,-14.85156 -4.41407,-4.11719 -9.70703,-7.35156 -15.88282,-9.70312 -6.17578,-2.35547 -12.9414,-3.38282 -20.4414,-3.38282 -9.5586,0 -17.9375,1.61719 -24.9961,5 -7.05859,3.38281 -12.9414,7.79297 -17.64843,13.52735 -4.70313,5.73437 -8.23438,12.35156 -10.44141,20 -2.20312,7.64453 -3.52734,15.58593 -3.52734,24.11718 v 3.96875 c 0,8.52735 1.17578,16.46875 3.38281,24.11719 2.20312,7.64453 5.73437,14.26172 10.44141,19.85156 4.70312,5.58594 10.58593,10.14453 17.64453,13.38282 7.05859,3.23437 15.4414,5 25,5 6.91015,0 13.3789,-1.17969 19.41015,-3.38282 6.02735,-2.20703 11.32422,-5.29687 15.87891,-9.26562 4.55859,-3.96875 8.23828,-8.52735 10.88281,-13.82422 2.64844,-5.29297 4.26563,-10.87891 4.41406,-16.91016 h -26.32421 c -0.14454,3.08985 -0.88282,5.88282 -2.20704,8.53125 -1.32031,2.64453 -3.08593,4.85157 -5.29296,6.76172 -2.20313,1.91406 -4.70313,3.38281 -7.64454,4.41406 -2.79687,1.02735 -5.73437,1.32032 -8.82421,1.46875 -5.29297,-0.14843 -9.70704,-1.17578 -13.08594,-3.38281 -3.67969,-2.35156 -6.61719,-5.4414 -8.67969,-9.11719 -2.05859,-3.67578 -3.67578,-8.08593 -4.41016,-12.9375 -0.73437,-4.85546 -1.17578,-9.85546 -1.17578,-14.70703 v -3.96875 c 0,-5.14843 0.44141,-10 1.17578,-14.85547 z M 187.5,40.449219 c -81.17187,0 -147.050781,65.878911 -147.050781,147.050781 0,81.17187 65.878911,147.05078 147.050781,147.05078 81.17187,0 147.05078,-65.87891 147.05078,-147.05078 0,-81.17187 -65.87891,-147.050781 -147.05078,-147.050781 z m 0,264.691401 c -64.84766,0 -117.640625,-52.79296 -117.640625,-117.64062 0,-64.84766 52.792965,-117.640625 117.640625,-117.640625 64.84766,0 117.64062,52.792965 117.64062,117.640625 0,64.84766 -52.79296,117.64062 -117.64062,117.64062 z m 0,0"
       id="path2" />
  </g>
</svg>
